Icons/rider.svg

<svg width="256" height="256" viewBox="0 0 256 256" fill="none" xmlns="http://www.w3.org/2000/svg">
<g clip-path="url(#clip0_45_500)">
<path d="M196 0H60C26.8629 0 0 26.8629 0 60V196C0 229.137 26.8629 256 60 256H196C229.137 256 256 229.137 256 196V60C256 26.8629 229.137 0 196 0Z" fill="#242938"/>
<g clip-path="url(#clip1_45_500)">
<path d="M212.057 108.424L93.4358 40.7917L172.919 161.936L189.106 151.035L212.057 108.424Z" fill="url(#paint0_linear_45_500)"/>
<path d="M164.947 80.6775L149.968 43.5168L117.112 76.7137L130.399 197.114L162.289 214.208L212.057 184.48L164.947 80.6775Z" fill="url(#paint1_linear_45_500)"/>
<path d="M93.4358 40.7917L42.9434 75.7228L61.7874 194.885L110.347 213.961L173.161 161.936L93.4358 40.7917Z" fill="url(#paint2_linear_45_500)"/>
<path d="M178.234 75.4751H76.7661V179.525H178.234V75.4751Z" fill="black"/>
<path d="M126.05 161.192H87.8792V167.881H126.05V161.192Z" fill="white"/>
<path d="M128.708 88.3574H143.687C155.766 88.3574 163.98 96.7805 163.98 107.433C163.98 118.334 155.766 127.005 143.687 127.005L128.708 127.5V88.3574ZM137.164 96.285V119.82H143.687C150.451 119.82 155.283 115.113 155.283 108.424C155.283 101.488 150.693 96.7805 143.687 96.7805L137.164 96.285Z" fill="white"/>
<path d="M89.5704 88.3574H106.965C111.797 88.3574 115.421 89.8439 118.078 92.3212C120.252 94.5509 121.219 97.5237 121.219 101.24V101.488C121.219 104.708 120.494 107.186 119.045 109.167C117.595 111.149 115.662 112.636 113.246 113.627L122.668 127.5H112.763L104.791 115.609H97.7845V127.5H89.3289L89.5704 88.3574ZM106.482 107.433C108.415 107.433 110.106 106.938 111.314 105.947C112.522 104.956 113.005 103.469 113.005 101.983V101.735C113.005 99.7534 112.522 98.5147 111.314 97.5237C110.106 96.7805 108.656 96.0373 106.482 96.0373H98.2677V107.186H106.482V107.433Z" fill="white"/>
</g>
</g>
<defs>
<linearGradient id="paint0_linear_45_500" x1="201.16" y1="140.181" x2="69.2007" y2="66.335" gradientUnits="userSpaceOnUse">
<stop stop-color="#DD1265"/>
<stop offset="0.483" stop-color="#DD1265"/>
<stop offset="0.942" stop-color="#FDB60D"/>
</linearGradient>
<linearGradient id="paint1_linear_45_500" x1="123.673" y1="55.9335" x2="177.688" y2="201.386" gradientUnits="userSpaceOnUse">
<stop offset="0.139" stop-color="#087CFA"/>
<stop offset="0.476" stop-color="#DD1265"/>
<stop offset="0.958" stop-color="#087CFA"/>
</linearGradient>
<linearGradient id="paint2_linear_45_500" x1="85.0128" y1="60.4344" x2="124.998" y2="199.003" gradientUnits="userSpaceOnUse">
<stop offset="0.278" stop-color="#DD1265"/>
<stop offset="0.968" stop-color="#FDB60D"/>
</linearGradient>
<clipPath id="clip0_45_500">
<rect width="256" height="256" fill="white"/>
</clipPath>
<clipPath id="clip1_45_500">
<rect width="169.113" height="173.417" fill="white" transform="translate(42.9434 40.7917)"/>
</clipPath>
</defs>
</svg>

<svg width="256" height="256" viewBox="0 0 256 256" fill="none" xmlns="http://www.w3.org/2000/svg"><g clip-path="url(#a)"><g clip-path="url(#b)"><path d="M212.057 108.424 93.436 40.792l79.483 121.144 16.187-10.901z" fill="url(#c)"/><path d="m164.947 80.678-14.979-37.161-32.856 33.197 13.287 120.4 31.89 17.094 49.768-29.728z" fill="url(#d)"/><path d="m93.436 40.792-50.493 34.93 18.844 119.163 48.56 19.076 62.814-52.025z" fill="url(#e)"/><path d="M178.234 75.475H76.766v104.05h101.468z" fill="#000"/><path d="M126.05 161.192H87.88v6.689h38.17zm2.658-72.835h14.979c12.079 0 20.293 8.424 20.293 19.076 0 10.901-8.214 19.572-20.293 19.572l-14.979.495zm8.456 7.928v23.535h6.523c6.764 0 11.596-4.707 11.596-11.396 0-6.936-4.59-11.644-11.596-11.644zM89.57 88.357h17.395c4.832 0 8.456 1.487 11.113 3.964 2.174 2.23 3.141 5.203 3.141 8.919v.248c0 3.22-.725 5.698-2.174 7.679q-2.175 2.973-5.799 4.46l9.422 13.873h-9.905l-7.972-11.891h-7.007V127.5H89.33zm16.912 19.076c1.933 0 3.624-.495 4.832-1.486s1.691-2.478 1.691-3.964v-.248c0-1.982-.483-3.22-1.691-4.211-1.208-.743-2.658-1.487-4.832-1.487h-8.214v11.149h8.214z" fill="#fff"/></g></g><defs><linearGradient id="c" x1="201.16" y1="140.181" x2="69.201" y2="66.335" gradientUnits="userSpaceOnUse"><stop stop-color="#dd1265"/><stop offset=".483" stop-color="#dd1265"/><stop offset=".942" stop-color="#fdb60d"/></linearGradient><linearGradient id="d" x1="123.673" y1="55.934" x2="177.688" y2="201.386" gradientUnits="userSpaceOnUse"><stop offset=".139" stop-color="#087cfa"/><stop offset=".476" stop-color="#dd1265"/><stop offset=".958" stop-color="#087cfa"/></linearGradient><linearGradient id="e" x1="85.013" y1="60.434" x2="124.998" y2="199.003" gradientUnits="userSpaceOnUse"><stop offset=".278" stop-color="#dd1265"/><stop offset=".968" stop-color="#fdb60d"/></linearGradient><clipPath id="a"><path fill="#fff" d="M0 0h256v256H0z"/></clipPath><clipPath id="b"><path fill="#fff" d="M42.943 40.792h169.113v173.417H42.943z"/></clipPath></defs></svg>
